brandFactory_export/2.Regular/Infinito_2Regular.svg

<?xml version="1.0" encoding="UTF-8"?>
<svg width="24px" height="24px" viewBox="0 0 24 24" version="1.1" xmlns="http://www.w3.org/2000/svg" xmlns:xlink="http://www.w3.org/1999/xlink">
    <title>2.Regular/Infinito_2Regular</title>
    <g id="Symbols" stroke="none" stroke-width="1" fill="none" fill-rule="evenodd">
        <g id="2.Regular/Infinito_2Regular" fill="#5CB615" fill-rule="nonzero">
            <path d="M19.0184874,15.2823529 L19.0016807,15.2823529 C17.2470588,15.2756303 14.2991597,13.1310924 12.9142857,11.9210084 C14.302521,10.707563 17.2571429,8.55630252 19.0151261,8.55630252 L19.0218487,8.55630252 C20.0470588,8.55966387 20.8369748,8.8487395 21.3680672,9.42016807 C21.8991597,9.99159664 22.1647059,10.8352941 22.1647059,11.9277311 C22.1546218,14.1260504 21.0689076,15.2823529 19.0184874,15.2823529 M4.62184874,15.2823529 L4.60504202,15.2823529 C2.55462185,15.2823529 1.46890756,14.1226891 1.46215375,11.9310924 C1.45882353,10.8352941 1.72773109,9.99159664 2.25882353,9.42352941 C2.78991597,8.85210084 3.57647059,8.56302521 4.60504202,8.55966387 L4.61176471,8.55966387 C6.37310924,8.55966387 9.32773109,10.7109244 10.712605,11.9243697 C9.32773109,13.1310924 6.37983193,15.2756303 4.62184874,15.2823529 M22.4033613,8.32436975 C21.6,7.46386555 20.4302521,7.00672269 19.0218487,7 L19.0117647,7 C16.5714286,7 13.1428571,9.70252101 11.8117647,10.8857143 C10.4806723,9.70252101 7.05546218,7 4.60840336,7 L4.59831933,7 C3.18991597,7.00336134 2.02016807,7.46386555 1.21680672,8.32436975 C0.416806723,9.18487395 -0.00336134454,10.4319328 -2.00107346e-05,11.9344538 C0.0100840336,15.0067227 1.73109244,16.8420168 4.60504202,16.8420168 L4.62521008,16.8420168 C7.06554622,16.8352941 10.4806723,14.1394958 11.8117647,12.9563025 C13.1428571,14.1361345 16.5579832,16.8352941 18.9983193,16.8420168 L19.0184874,16.8420168 C21.8957983,16.8420168 23.6168067,15.010084 23.6235494,11.9344538 C23.6268908,10.4319328 23.2067227,9.18487395 22.4033613,8.32436975" id="Infinito_2Regular"></path>
        </g>
    </g>
</svg>

<svg width="24" height="24" viewBox="0 0 24 24" xmlns="http://www.w3.org/2000/svg"><path d="M19.018 15.282h-.016c-1.755-.006-4.703-2.15-6.088-3.361 1.389-1.213 4.343-3.365 6.101-3.365h.007c1.025.004 1.815.293 2.346.864.531.572.797 1.415.797 2.508-.01 2.198-1.096 3.354-3.147 3.354m-14.396 0h-.017c-2.05 0-3.136-1.16-3.143-3.35-.003-1.097.266-1.94.797-2.508.53-.572 1.317-.861 2.346-.864h.007c1.761 0 4.716 2.15 6.1 3.364-1.384 1.207-4.332 3.352-6.09 3.358m17.781-6.958C21.6 7.464 20.43 7.007 19.022 7h-.01c-2.44 0-5.87 2.703-7.2 3.886C10.48 9.703 7.055 7 4.608 7h-.01c-1.408.003-2.578.464-3.381 1.324-.8.86-1.22 2.108-1.217 3.61.01 3.073 1.731 4.908 4.605 4.908h.02c2.44-.007 5.856-2.703 7.187-3.886 1.33 1.18 4.746 3.88 7.186 3.886h.02c2.878 0 4.599-1.832 4.606-4.908.003-1.502-.417-2.75-1.22-3.61" fill="#5CB615" fill-rule="nonzero"/></svg>
